X:1
T:5 Lieder, Op.10
T:Nach Süden
T:1. Nach Süden
T:Fanny (Mendelssohn) Hensel
T:5 Lieder, Op.10
T:OpenScore (CC0) 
T:OpenScore (CC0) 
T:OpenScore (CC0) 
T:OpenScore (CC0) 
C:Fanny (Mendelssohn) Hensel
Z:OpenScore (CC0)
Z:
%%score 1 { ( 2 5 ) | ( 3 4 ) }
L:1/8
Q:1/4=180
M:12/8
K:E
V:1 treble nm="Voice"
V:2 treble nm="Piano"
V:5 treble 
V:3 bass 
V:4 bass 
V:1
"^Allegro molto vivace" z6 z2 z z2!f! B | (B3 c2) d e3- e2 c | B6 A3 G3 | F3 A2 c f3 e2 f | %4
w: Von|al- * len~ Zwei- * gen|schwin- gen sich|wan- dern- de Vö- gel em-|
 g3 z3 z6 |!mf! e3 d2 e f3 e3 | (e3 d3) (c3 B3) | e3 d2 e f3 e3 | (d6"^dim." =d6) | %9
w: por,|weit durch die Lüf- te|klin- * gen *|hört man den Rei- se-|chor, *|
!p! c3 ^B2 c e3 c3 | (c3 B3) (A3 G3) | c3 ^B2 c e3 c3 | B3 z3 z3 z2!f! B | e6- (e3 c3) | %14
w: weit durch die Lüf- te|klin- * gen *|hört man den Rei- se-|chor, nach|Sü- * *|
 ^A3 z3 z3 F3 | f6- (f3 e3) | d3 z3 z3 B2 B ||[M:4/4][Q:1/4=120]"^L'istesso Tempo" g4 (fe) (dc) | %18
w: den, nach|Sü- * *|den, in den|e- wi- * gen, *|
 (B2 ^B2) c2 e2 | F6 B2 | ^A4 z4 | z4 z2 F F | f4 (ed) (cB) | (g2 e2) B2 G2 | (E8 | e8-) | %26
w: e- * wi- gen|Blu- men-|flor,|in den|e- wi- * gen, *|e- * wi- gen,|e-||
 (e2 B2) G2 E2 | G6 F2 | E2 z2 z4 | z8 | z8 | z4 z2 z B ||[M:12/8][Q:3/8=120] B3 c2 d e3 c2 B | %33
w: * * wi- gen|Blu- men-|flor.|||Ihr|Vög- lein singt~ mun- ter her-|
 B6 A3 G3 | (F3 A2) c f3 e2 f | g3 z3 z6 |!p! e3 (d2 e) f3 e3 | e3 d2 d c3 B3 | e3 d2 e f3 e3 | %39
w: nie- der, wir|sin- * gen~ lu- stig hin-|aus,|wenn der * Lenz kommt|keh- ren wir~ wie- der,|wie- der in Nest und|
 (d6 =d6) |!p! c3 (^B2 c) e3 c3 | c3 B2 B A3 G3 | c3 ^B2 c e3 c3 | B3 z3 z3 z2!f! e | e6- (e3 c3) | %45
w: Haus,- *|wenn der * Lenz kommt,|keh- ren wir wie- der,|wie- der in Nest und|Haus von|Sü- * *|
 ^A3 z2 z z2 z F3 | f6- (f3 e3) | d3 z3 z3 A3 | G6 A3 B3 | %49
w: den, von|Sü- * *|den! Jetzt|a- ber, jetzt|
"^poco ritard."[Q:3/8=115] c6[Q:3/8=110] d3 e3 |[Q:3/8=105] B3 z3 z3 z2!f! B | e3 z3 z3 z2 G | %52
w: a- ber hin-|aus, hin-|aus, hin-|
 c3 z3 z3 z2 e | g6 z6 | e6 (f2 e) d2 c | (B6 c3 d3 | e3 ^e3 f3 g3 | a3) z3 z3 z2 d | e3 z3 z6 | %59
w: aus, hin-|aus!|jetzt a- * ber hin|aus!- * *||* hin-|aus!|
 z12 | z12 | z12 | z12 |] %63
w: ||||
V:2
!f! z [G,EG][G,EG] z [B,EB][B,EB] z [EBe][EBe] z [Geg][Geg] | %1
 z [G,EG][G,EG] z [B,EB][B,EB] z [Ece][Ece] z [Gcg][Gcg] | %2
 z [A,FA][A,FA] z [CFc][CFc] z [Fcf][Fcf] z [^E,B,^E][E,B,E] | %3
 z [F,CF][F,CF] z [Afa][Afa] z [Fcf][Fcf] z [CFc][CFc] | %4
 z [^B,G^B][B,GB] z [DGd][DGd] z [Gdg][Gdg] z [FGd][FGd] | %5
!mf! [Ee][Gc][Gc] [Dd][Gc][EGce] [Ff]^AA [Ee][FA][FA] | %6
 [Ee][F=A][FA] [Dd][FA][FA] [Cc][FA][FA] [B,B][FA][FA] | %7
 [Ee][Gc][Gc] [Dd][Gc][EGce] [Ff]^AA [Ee][FA][FA] | FAd [Ada]3 GB=d [Bdb]3 | %9
!p! [Ac]EE [G^B]E[EAc] [ce]EE [Ac]EE | [Ac]EE [GB]EE [Ad]EE [Be]EE | %11
 [Ac]EE [G^B]E[Ac] [ce]EE [Ac]EE | [B,B]!<(!EGBeg!<)! b2 z [B,EB]2 z | %13
!f! z [^A,C][A,C] z [CE][CE] z [E^A][EA] z [ce][ce] | %14
 z [^Ac][Ac] z [E=G][EG] z [CF][CF] z [^A,E][A,E] | %15
 z [=A,D][A,D] z [DF][DF] z [FA][FA] z [FAe][FAe] | %16
 z [FAd][FAd] z [DF=c][DFc] z [B,DB][B,DB] z [B,DA][B,DA] ||[M:4/4] [B,EG]4 [B,EA]4 | %18
 [B,EB]2 ^B2 [EAc]2 [E=Ge]2 | [DF]4 [B,DF]4 | [CE^A]2!>(! =G2!>)! F2 E2 | %21
 [CE^A]2!>(! =G2!>)! F2 E2 | [B,DB]8 | [B,EB]8 | [EG][EG]G,[EG] A,[EG]^A,[EG] | %25
 B,[EG]^B,[EG] C[EG]^A,[EG] | B,2 [EB]2 [Ge]2 [Bg]2 | [eb]2 z2 [A,D]2 z2 | %28
!p! [G,E]2 [Ge]2 [Bg]2 [eb]2 | [ge']2 [eb]2 [Bg]2 [Ge]2 | [c^a]2 [^A=g]2 [=Ge]2 [EA]2 | %31
 [d=a]2 [Af]2 [Fd]2 [DA]2 ||[M:12/8]!f! z [G,EG][G,EG] z [B,EB][B,EB] z [Ece][Ece] z [Gcg][Gcg] | %33
 z [A,FA][A,FA] z [CFc][CFc] z [Fcf][Fcf] z [^E,B,^E][E,B,E] | %34
 z [F,CF][F,CF] z [Afa][Afa] z [Fcf][Fcf] z [CFc][CFc] | %35
 z [^B,G^B][B,GB] z [DGd][DGd] z [Gdg][Gdg] z [FGd][FGd] | %36
!p! [Ee][Gc][Gc] [Dd][Gc][EGce] [Ff]^AA [Ee][FA][FA] | %37
 [Ee][F=A][FA] [Dd][FA][FA] [Cc][FA][FA] [B,B][FA][FA] | %38
 [Ee][Gc][Gc] [Dd][Gc][EGce] [Ff]^AA [Ee][FA][FA] | FAd [Ada]3 GBe [Beb]3 | %40
!p! [Ac]EE [G^B]E[EAc] [ce]EE [Ac]EE | [Ac]EE [GB]EE [Ad]EE [Be]EE | %42
 [Ac]EE [G^B]E[EAc] [ce]EE [Ac]EE |!<(! [B,B]EGBeg!<)! b2 z [B,EB]2 z | %44
 z [^A,C][A,C] z [CE][CE] z [E^A][EA] z [ce][ce] | %45
 z [^Ac][Ac] z [E=G][EG] z [CF][CF] z [^A,E][A,E] | z [=A,D][A,D] z [DF][DF] z [DA][DA] e[EA][EA] | %47
 d[FA][FA] =c[DF][DF] B[B,D][B,D] A[B,D][B,D] | [B,EG]6 A3 [GB]3 | [E=Gc]6 z6 | %50
 [EF]3 z3 [B,D]3 z3 |!f! z [G,EG][G,EG] z [B,EB][B,EB] z [EBe][EBe] z [Geg][Geg] | %52
 z [G,EG][G,EG] z [CGc][CGc] z [Ece][Ece] z [Gcg][Gcg] | %53
 z [^B,G^B][B,GB] z [DGd][DGd] z [Gdg][Gdg] z [FGd][FGd] | %54
 z [EGce][EGce] z [EGc][EGc] z [EFc][EFc] z [EFc][EFc] | %55
 z [EGB][EGB] z [Beb][Beb] z [ce^a][cea] z [=Ad=a][Ada] | %56
 z [Geg][Geg] z [=D^E=d][DEd] z [CFc][CFc] z [B,DGB][B,DGB] | [A,CFA]3 z3 [DABd]3 z3 | %58
 z!f! [G,EG][G,EG] z [B,EB][B,EB] z [EBe][EBe] z [Geg][Geg] | %59
 z [Beb][Beb] z [Geg][Geg] z [EBe][EBe] z [B,GB][B,GB] | %60
 z [Geg][Geg] z [EBe][EBe] z [B,GB][B,GB] z [G,EG][G,EG] | [G,B,E]3 z3 [ebe']3 z3 | %62
 [G,B,E]3 z3 z6 |] %63
V:3
!ped! [E,,E,]2 z [E,G,]2 z [G,B,]2 z [B,E]2 z!ped-up! | [E,,E,]2 z [E,G,]2 z [G,C]2 z [CE]2 z | %2
 [F,,F,]2 z [F,A,]2 z [A,C]2 z [G,,,G,,]2 z | [A,,,A,,]2 z [CF]2 z [A,C]2 z [F,A,]2 z | %4
 [G,,,G,,]2 z [G,^B,]2 z [B,D]2 z [G,B,]2 z | [C,,C,]2 z [G,C]2 z [=C,,=C,]2 z [F,=C]2 z | %6
 [B,,,B,,]2 z [F,B,]2 z [C,,C,]2 z [D,,D,]2 z | [C,,C,]2 z [G,C]2 z [=C,,=C,]2 z [F,=C]2 z | %8
 [B,,,B,,][F,B,F][F,B,F] [F,B,F]3 E,,[E,G,E][E,G,E] [E,G,E]3 | [A,C]3 [G,^B,]2 [A,C] [CE]3 [A,C]3 | %10
 [E,A,C]3 [E,,E,]2 z [E,,F,]2 z [E,,G,]2 z | [E,A,C]3 [G,^B,]2 [A,C] [E,CE]3 [A,,A,]3 | %12
 [G,,G,][G,B,E][G,B,E][G,B,E][G,B,E][G,B,E] [G,B,E]2 z [=G,,=G,]2 z | %13
!ped! [F,,,F,,]3 ^A,3 C3 =G3!ped-up! | F3 C3 ^A,3 F,3 | [B,,,B,,]3 B,3 D3 [=C,=C]3 | %16
 [B,,B,]3 [A,,A,]3 [G,,G,]3 [F,,F,]3 ||[M:4/4] [E,,E,]4 [F,,F,]4 | [G,,G,]4 [A,,A,]2 [^A,,^A,]2 | %19
 [B,,B,]4 [B,,F,]4 | [F,,,F,,]2 =G,2 F,2 E,2 | [F,,,F,,]2 =G,2 F,2 E,2 | [=A,,,=A,,]8 | %23
 [G,,,G,,]8- | [G,,,G,,]2 [G,,,G,,]2 [A,,,A,,]2 [^A,,,^A,,]2 | %25
 [B,,,B,,]2 [^B,,,^B,,]2 [C,,C,]2 [^A,,,^A,,]2 | [B,,,B,,]2 G,2 B,2 E2 | G2 z2 [B,,F,]2 z2 | %28
!ped! E,,2 [B,E]2 [EG]2 [GB]2 |[K:treble] [Be]2 [GB]2 [EG]2 [B,E]2!ped-up! | %30
!ped! [E=G]2 [CE]2[K:bass] [^A,C]2 [=G,C]2!ped-up! | %31
[K:treble]!ped! [FB]2 [DF]2 [B,D]2[K:bass] [B,,F,B,]2!ped-up! || %32
[M:12/8] [A,,,A,,]2 z [E,G,]2 z [G,C]2 z [CE]2 z | [F,,F,]2 z [F,A,]2 z [A,C]2 z [G,,,G,,]2 z | %34
 [A,,,A,,]2 z [CF]2 z [A,C]2 z [F,A,]2 z | [G,,,G,,]2 z [G,^B,]2 z [B,D]2 z [G,B,]2 z | %36
 [C,,C,]2 z [G,C]2 z [=C,,=C,]2 z [F,=C]2 z | [B,,,B,,]2 z [F,B,]2 z [C,,C,]2 z [D,,D,]2 z | %38
 [C,,C,]2 z [G,C]2 z [=C,,=C,]2 z [F,=C]2 z | %39
 [B,,,B,,][F,B,F][F,B,F] [F,B,F]3 [E,,E,][G,B,E][G,B,E] [G,B,E]3 | %40
 [A,C]3 [G,^B,]2 [A,C] [CE]3 [A,C]3 | [E,A,C]3 [E,,E,]2 z [E,,F,]2 z [E,,G,]2 z | %42
 [A,C]3 [G,^B,]2 [A,C] [CE]3 [A,,A,]3 | %43
 [G,,G,][G,B,][G,B,E][G,B,E][G,B,E][G,B,E] [G,B,E]2 z [=G,,=G,]2 z | [F,,,F,,]2 z ^A,3 C3 =G3 | %45
 F3 C3 ^A,3 F,3 | [B,,,B,,]3 F,3 B,3 [=C,=C]3 | [B,,B,]3 [A,,A,]3 [G,,G,]3 [F,,F,]3 | %48
 [E,,E,]3 D3 C3 B,3 |"^poco ritard." [^A,,^A,]6 z6 | [B,,B,]3 z3 [B,,A,]3 z3 | %51
!ped! [E,,E,]2 z [E,G,]2 z [G,B,]2 z [B,E]2 z!ped-up! | %52
!ped! [C,,C,]2 z [E,G,]2 z [G,C]2 z [CE]2 z!ped-up! | [G,,G,]2 z [G,^B,]2 z [B,D]2 z [G,B,]2 z | %54
 [C,,C,]2 z [G,C]2 z [^A,,,^A,,]2 z [F,^A,]2 z | [B,,,B,,]2 z G3 ^^F3 ^F3 | E3 B,3 A,3 ^E,3 | %57
 F,3 z3 [B,,,B,,]3 z3 |!ped! E,,3 [E,G,]3 [G,B,]3 [B,E]3 | [EG]3 [B,E]3 [G,B,]3 [E,G,]3 | %60
 [B,E]3 [G,B,]3 [E,G,]3 [B,,E,]3 | [E,,E,]3 z3 [EGB]3 z3 | [E,,E,]3 z3 z6!ped-up! |] %63
V:4
 x12 | x12 | x12 | x12 | x12 | x12 | x12 | x12 | x12 | E,6 E,6 | x12 | x12 | x12 | x12 | x12 | %15
 x12 | x12 ||[M:4/4] x8 | x8 | x8 | x2 C,4 x2 | x2 C,4 x2 | x8 | x8 | x8 | x8 | x8 | x8 | x8 | %29
[K:treble] x8 | x4[K:bass] x4 |[K:treble] x6[K:bass] x2 ||[M:12/8] x12 | x12 | x12 | x12 | x12 | %37
 x12 | x12 | x12 | E,12 | x12 | E,6 x3 x3 | x12 | x12 | x12 | x12 | x12 | x12 | x12 | x12 | x12 | %52
 x12 | x12 | x12 | x12 | x12 | x12 | x12 | x12 | x12 | x12 | x12 |] %63
V:5
 x12 | x12 | x12 | x12 | x12 | x12 | x12 | x12 | x12 | x12 | x12 | x12 | x12 | x12 | x12 | x12 | %16
 x12 ||[M:4/4] x8 | x8 | x8 | x2 [^A,C]4 x2 | x2 [^A,C]4 x2 | x8 | x8 | x8 | x8 | x8 | x8 | x8 | %29
 x8 | x8 | x8 ||[M:12/8] x12 | x12 | x12 | x12 | x12 | x12 | x12 | x12 | x12 | x12 | x12 | x12 | %44
 x12 | x12 | x12 | x12 | x6 E6 | x12 | x12 | x12 | x12 | x12 | x12 | x12 | x12 | x12 | x12 | x12 | %60
 x12 | x12 | x12 |] %63

